X: 5986
T: Canadian Club, The
R: jig
M: 6/8
K: Amajor
AB|"A"{B}c3 cBA|{D}E3 EAB|"A"{B}c3 cBA|{c}[e3e3] {ef}[e2e2] c|
"D"dfd "Bm"{e}dcB|"A"cec {d}cBA|"E"BcB [g2B2] f|"E7"efd cdB|
"A"{B}c3 cBA|{D}E3 EAB|"A"{B}c3 cBA|{c}[e3e3] {ef}[e2e2] c|
"D"dfd "Bm"{e}dcB|"A"caf ecA|"E"BcB EFG|"A"{G}[A3A3] [AA]||
|:a=g|"D"faf dfa|"A"ecA ecA|"E"BcB EFG|"A"AEA cBA|
"D"fdf {b}agf|"A"eae ecA|"E"BcB EFG|"A"{G}[A3A3] [AA]:|

